**kern	**text	**kern	**text	**kern	**text	**kern	**text	**kern	**text	**cdata-harm
*staff5	*staff5	*staff4	*staff4	*staff3	*staff3	*staff2	*staff2	*staff1	*staff1	*
=1-	=1-	=1-	=1-	=1-	=1-	=1-	=1-	=1-	=1-	=1-
*clefF4	*	*clefGv2	*	*clefG2	*	*clefG2	*	*clefG2	*	*
*k[]	*	*k[]	*	*k[]	*	*k[]	*	*k[]	*	*
*M4/4	*	*M4/4	*	*M4/4	*	*M4/4	*	*M4/4	*	*
1r	.	2r	.	2a/	A	1r	.	1r	.	<CON_5v
.	.	2A/	A	4a/	pi&egrave;	.	.	.	.	.
.	.	.	.	4a/	d'un	.	.	.	.	.
=2	=2	=2	=2	=2	=2	=2	=2	=2	=2	.
1r	.	4B\	pi&egrave;	2g/	lau-	1r	.	1r	.	.
.	.	4c\	d'un	.	.	.	.	.	.	.
.	.	2d\	lau-	4f/	ro	.	.	.	.	.
.	.	.	.	[4a/	che	.	.	.	.	.
=3	=3	=3	=3	=3	=3	=3	=3	=3	=3	.
1r	.	1c\	ro	4a/]	.	2r	.	2ee\	A	.
.	.	.	.	4g/	soa-	.	.	.	.	.
.	.	.	.	4.cc\	vi	2e/	A	4ee\	pi&egrave;	.
.	.	.	.	.	.	.	.	4ee\	d'un	.
.	.	.	.	8b\	.	.	.	.	.	.
=4	=4	=4	=4	=4	=4	=4	=4	=4	=4	.
2r	.	1r	.	2a/	.	4f/	pi&egrave;	2dd\	lau-	.
.	.	.	.	.	.	4g/	d'un	.	.	.
2A\	A	.	.	4a/	ven-	2a/	lau-	2cc\	ro	.
.	.	.	.	4e/	tiA	.	.	.	.	.
=5	=5	=5	=5	=5	=5	=5	=5	=5	=5	.
4A\	pi&egrave;	2c\	A	2f#/	pi&egrave;	2a/	ro	4r	.	.
4A\	d'un	.	.	.	.	.	.	2cc\	che	.
2G\	lau-	4d\	pi&egrave;	2g/	d'un	2r	.	.	.	.
.	.	4e\	d'un	.	.	.	.	4b\	soa-	.
=6	=6	=6	=6	=6	=6	=6	=6	=6	=6	.
2F\	ro	4.A/	lau-	2a/	lau-	4.f/	che	4cc\	.	.
.	.	.	.	.	.	.	.	4dd\	.	.
.	.	8B\	ro	.	.	8f/	soa-	.	.	.
2r	.	4c\	che	2g/	ro	4e/	.	4ee\	vi	.
.	.	4d\	soa-	.	.	4f/	vi	8dd\L	ven-	.
.	.	.	.	.	.	.	.	8cc\J	.	.
=7	=7	=7	=7	=7	=7	=7	=7	=7	=7	.
1r	.	4e\	.	2r	.	8g/L	ven-	4b\	.	.
.	.	.	.	.	.	8e/J	.	.	.	.
.	.	4f\	vi	.	.	2a/	.	4a/	.	.
.	.	2e\	ven-	4r	.	.	.	2b\	.	.
.	.	.	.	4e/	A	4g/	.	.	.	.
=8	=8	=8	=8	=8	=8	=8	=8	=8	=8	.
4r	.	2A/	ti	4e/	pi&egrave;	1a/	ti	1a/	ti	.
4A\	A	.	.	4e/	d'un	.	.	.	.	.
4A\	pi&egrave;	4r	.	4f/	l'au-	.	.	.	.	.
4A\	d'un	4c\	A	4e/	ro	.	.	.	.	.
=9	=9	=9	=9	=9	=9	=9	=9	=9	=9	.
2G\	lau-	4d\	pi&egrave;	2g/	che	1r	.	2r	.	.
.	.	4e\	d'un	.	.	.	.	.	.	.
4F\	ro	4.f\	l'au-	4a/	soa-	.	.	4r	.	.
[4A\	che	.	.	[4cc\	vi	.	.	[4a/	che	.
.	.	8f\	ro	.	.	.	.	.	.	.
=10	=10	=10	=10	=10	=10	=10	=10	=10	=10	.
4A\]	.	4e\	che	4cc\]	.	1r	.	4a/]	.	.
4G\	soa-	4e\	soa-	4b\	.	.	.	4b\	soa-	.
4A\	vi	4c\	vi	4a/	ven-	.	.	4cc\	.	.
4B\	.	4d\	.	8g/L	.	.	.	8b/L	.	.
.	.	.	.	8f/J	.	.	.	8a/J	.	.
=11	=11	=11	=11	=11	=11	=11	=11	=11	=11	.
4.c\	ven-	4.e\	ven-	8e/L	.	1r	.	4g/	.	.
.	.	.	.	8f/J	.	.	.	.	.	.
.	.	.	.	2g/	.	.	.	4cc\	vi	.
16B\LL	.	16d\LL	.	.	.	.	.	.	.	.
16A\JJ	.	16c\JJ	.	.	.	.	.	.	.	.
4G\	.	8d\L	.	.	.	.	.	8b\L	ven-	.
.	.	8e\J	.	.	.	.	.	8cc\J	.	.
4F\	.	[4f\	.	4a/	.	.	.	[4dd\	.	.
=12	=12	=12	=12	=12	=12	=12	=12	=12	=12	.
1G\	.	8f\L]	.	1g/	.	2r	.	8dd\L]	.	.
.	.	8e\J	.	.	.	.	.	8cc\J	.	.
.	.	8d\L	.	.	.	.	.	2cc\	.	.
.	.	8c\J	.	.	.	.	.	.	.	.
.	.	2d\	.	.	.	4r	.	.	.	.
.	.	.	.	.	.	4g/	Sco-	4b\	.	<<ANTIF_5v
=13	=13	=13	=13	=13	=13	=13	=13	=13	=13	.
4C/	ti	2c\	ti	4g/	ti	2e/	tean	4cc\	ti	>
4c\	Sco-	.	.	4e/	Sco-	.	.	4g/	Sco-	.
2G\	tean	4r	.	2d/	tean	4r	.	2b\	tean	.
.	.	4d\	Sco-	.	.	4g/	Sco-	.	.	.
=14	=14	=14	=14	=14	=14	=14	=14	=14	=14	.
2r	.	2c\	tean	4r	.	1e/	tean	4r	.	.
.	.	.	.	4g/	Sco-	.	.	4cc\	Sco-	.
4r	.	4r	.	4e/	tean	.	.	2g/	tean	.
4c\	con	4g\	Sco-	4e/	con	.	.	.	.	.
=15	=15	=15	=15	=15	=15	=15	=15	=15	=15	.
4A\	dol-	2.a\	tean	4.f/	dol-	2r	.	2r	.	.
4d\	ciac-	.	.	.	.	.	.	.	.	.
.	.	.	.	8f/	ciac-	.	.	.	.	.
2c#\	cen-	.	.	2e/	cen-	4r	.	4r	.	.
.	.	4e\	con	.	.	4a/	Sco-	4ee\	con	.
=16	=16	=16	=16	=16	=16	=16	=16	=16	=16	.
2d\	ti	4.f\	dol-	2d/	ti	2a/	tean	4a/	dol-	.
.	.	.	.	.	.	.	.	4dd\	ciac-	.
.	.	8f\	cia-	.	.	.	.	.	.	.
2A\	con-	2e\	cen-	2r	.	2a/	con	2cc#\	cen-	.
=17	=17	=17	=17	=17	=17	=17	=17	=17	=17	.
4.B-\	dol-	4d\	ti	2r	.	4.f/	dol-	4dd\	ti	.
.	.	4d\	con	.	.	.	.	4dd\	con	.
8B-\	ciac-	.	.	.	.	8g/	.	.	.	.
4.A\	cen-	4.c\	dol-	4r	.	[2a/	.	4ff\	dol-	.
.	.	.	.	4e/	con	.	.	[4ee\	ciac-	.
8G\	.	8B\	cia-	.	.	.	.	.	.	.
=18	=18	=18	=18	=18	=18	=18	=18	=18	=18	.
4.F\	.	1A/	cen-	4.f/	dol-	4a/]	.	4ee\]	.	.
.	.	.	.	.	.	4a/	ciac-	2dd\	cen-	.
16E\LL	.	.	.	8f/	ciac-	.	.	.	.	.
16D\JJ	.	.	.	.	.	.	.	.	.	.
2A\	.	.	.	2e/	cen-	2a/	cen-	.	.	.
.	.	.	.	.	.	.	.	4cc\	.	.
=19	=19	=19	=19	=19	=19	=19	=19	=19	=19	.
1D\	ti	1A/	ti	1d/	ti	1f#/	ti	1dd\	ti	>>
=20	=20	=20	=20	=20	=20	=20	=20	=20	=20	.
1r	.	4r	.	4r	.	4r	.	4r	.	.
.	.	2d\	Mi	2f/	Mi	2a/	Mi	2dd\	Mi	<HOM_4v
.	.	4c\	vi-	4g/	vi-	4cc\	vi-	4ee\	vi-	.
=21	=21	=21	=21	=21	=21	=21	=21	=21	=21	.
1r	.	2f\	vea	2a/	vea	2cc\	vea	2ff\	vea	.
.	.	4d\	pi&ugrave;	4a/	pi&ugrave;	4dd\	pi&ugrave;	4ff\	pi&ugrave;	.
.	.	4e\	che	4g#/	che	4b\	che	4ee\	che	.
=22	=22	=22	=22	=22	=22	=22	=22	=22	=22	.
1r	.	4A/	mai	4a/	mai	4cc\	mai	2ee\	mai	>
.	.	2a\	pi&ugrave;	4A/	che	2cc\	pi&ugrave;	.	.	<ANTIFlib_4v
.	.	.	.	2e/	mai	.	.	4r	.	.
.	.	4g#\	che	.	.	4b\	che	[4ee\	pi&ugrave;	.
=23	=23	=23	=23	=23	=23	=23	=23	=23	=23	.
1r	.	4a\	mai	4r	.	2cc\	mai	4ee\]	.	.
.	.	[4A/	lie-	[4c/	lie-	.	.	4ff\	che	.
.	.	8A\L]	.	8c/L]	.	2cc\	lie-	2ee\	mai	.
.	.	8B\J	.	8d/J	.	.	.	.	.	.
.	.	8c\L	.	4e/	.	.	.	.	.	.
.	.	8A\J	.	.	.	.	.	.	.	.
=24	=24	=24	=24	=24	=24	=24	=24	=24	=24	.
1r	.	2d\	.	8f/L	.	4.a/	toe	8dd\L	lie-	.
.	.	.	.	8g/J	.	.	.	8ee\J	.	.
.	.	.	.	8a/L	.	.	.	8ff\L	.	.
.	.	.	.	8f/J	.	8b\	.	8dd\J	.	.
.	.	2c\	to	2g/	.	4cc\	.	2ee\	.	.
.	.	.	.	.	.	4g/	fe-	.	.	.
=25	=25	=25	=25	=25	=25	=25	=25	=25	=25	.
1r	.	1r	.	4f/	toe	2a/	li-	4dd\	toe	.
.	.	.	.	4a/	fe-	.	.	4cc\	fe-	.
.	.	.	.	2g#/	li-	2e/	ce	2b\	li-	.
=26	=26	=26	=26	=26	=26	=26	=26	=26	=26	.
1r	.	4r	.	1a/	ce	4r	.	2a/	ce	.
.	.	2d\	pi&ugrave;	.	.	2f/	pi&ugrave;	.	.	.
.	.	.	.	.	.	.	.	2r	.	.
.	.	4c#\	che	.	.	4e/	che	.	.	.
=27	=27	=27	=27	=27	=27	=27	=27	=27	=27	.
4r	.	2d\	mai	4r	.	4.f/	mai	4r	.	.
2D\	pi&ugrave;	.	.	2d/	pi&ugrave;	.	.	2ff\	pi&ugrave;	.
.	.	.	.	.	.	8g/	.	.	.	.
.	.	2A/	lie-	.	.	[2a/	.	.	.	.
4C#/	che	.	.	4e/	che	.	.	4ee\	che	.
=28	=28	=28	=28	=28	=28	=28	=28	=28	=28	.
4D\	mai	4A/	to	4.f/	mai	2a/]	.	2dd\	mai	.
[4D\	lie-	[4A/	lie-	.	.	.	.	.	.	.
.	.	.	.	8e/	.	.	.	.	.	.
8D\L]	.	8A/L]	.	2d/	.	2f/	lie-	4r	.	.
8E\J	.	8G/J	.	.	.	.	.	.	.	.
8F\L	.	8A/L	.	.	.	.	.	[4a/	lie-	.
8D\J	.	8B/J	.	.	.	.	.	.	.	.
=29	=29	=29	=29	=29	=29	=29	=29	=29	=29	.
2A\	.	8c\L	.	2c/	lie-	4.e/	toe	8a/L]	.	.
.	.	8d\J	.	.	.	.	.	8b/J	.	.
.	.	8e\L	.	.	.	.	.	8cc/L	.	.
.	.	8c\J	.	.	.	8f/	fe-	8a/J	.	.
2G\	to	2d\	.	2B/	to	2g/	li-	2b\	.	.
=30	=30	=30	=30	=30	=30	=30	=30	=30	=30	.
8E\L	lie-	2e\	to	4r	.	4g/	ce	4cc\	toe	.
8F\J	.	.	.	.	.	.	.	.	.	.
8G\L	.	.	.	4g/	lie-	4g/	lie-	4b\	fe-	.
8E\J	.	.	.	.	.	.	.	.	.	.
2A\	.	4r	.	[2e/	toe	2cc\	toe	8a\L	li-	.
.	.	.	.	.	.	.	.	8b\J	.	.
.	.	4A/	lie-	.	.	.	.	8cc\L	.	.
.	.	.	.	.	.	.	.	8dd\J	.	.
=31	=31	=31	=31	=31	=31	=31	=31	=31	=31	.
4G#\	toe	4B\	toe	4e/]	.	4b\	fe-	1ee\	.	.
4A\	fe-	4c\	fe-	4e/	fe-	2a/	li-	.	.	.
2E\	li-	2B\	li-	2e/	li-	.	.	.	.	.
.	.	.	.	.	.	4g/	.	.	.	.
=32	=32	=32	=32	=32	=32	=32	=32	=32	=32	.
1A\	ce.	1A/	ce.	1e/	ce.	1a/	ce.	1cc#\	ce.	>
=33	=33	=33	=33	=33	=33	=33	=33	=33	=33	.
1r	.	2r	.	2r	.	2r	.	2r	.	.
.	.	2d\	Hor	2f/	Hor	2a/	Hor	2dd\	Hor	<HOM
=34	=34	=34	=34	=34	=34	=34	=34	=34	=34	.
1r	.	2.c\	poi	2g/	poi	2.cc\	poi	2.ee\	poi	.
.	.	.	.	[2a/	che	.	.	.	.	.
.	.	4A/	che	.	.	4cc\	che	4ff\	che	.
=35	=35	=35	=35	=35	=35	=35	=35	=35	=35	.
1r	.	2c\	del	4a/]	.	2cc\	del	2ee\	del	.
.	.	.	.	2g/	del	.	.	.	.	.
.	.	2d\	suo	.	.	2a/	suo	2dd\	suo	.
.	.	.	.	4f/	suo	.	.	.	.	.
=36	=36	=36	=36	=36	=36	=36	=36	=36	=36	.
1r	.	1A/	ver-	4e/	ver-	1a/	ver-	4cc#\	ver-	.
.	.	.	.	4d/	.	.	.	2dd\	.	.
.	.	.	.	2e/	.	.	.	.	.	.
.	.	.	.	.	.	.	.	4cc#\	.	.
=37	=37	=37	=37	=37	=37	=37	=37	=37	=37	.
2r	.	2d\	de	2d/	de	2a/	de	1dd\	de	>
2G\	Per	2B\	Per	2d/	Per	2g/	Per	.	.	<HOM_4v
=38	=38	=38	=38	=38	=38	=38	=38	=38	=38	.
2.F\	me	2c\	me	2.f/	me	2.a/	me	1r	.	.
.	.	2d\	pi&ugrave;	.	.	.	.	.	.	.
4D\	pi&ugrave;	.	.	4f/	pi&ugrave;	4b\	pi&ugrave;	.	.	.
=39	=39	=39	=39	=39	=39	=39	=39	=39	=39	.
2E\	og-	4c\	og-	2f/	og-	2a/	og-	1r	.	.
.	.	4A/	niho-	.	.	.	.	.	.	.
2G\	niho-	8c\L	ra	2e/	niho-	4a/	niho-	.	.	.
.	.	8d\J	.	.	.	.	.	.	.	.
.	.	8e\L	.	.	.	[4cc\	ra	.	.	.
.	.	8c\J	.	.	.	.	.	.	.	.
=40	=40	=40	=40	=40	=40	=40	=40	=40	=40	.
1G\	ra	1d\	.	1g/	ra	4cc\]	.	1r	.	.
.	.	.	.	.	.	8b/L	per-	.	.	.
.	.	.	.	.	.	8a/J	.	.	.	.
.	.	.	.	.	.	2b\	.	.	.	.
=41	=41	=41	=41	=41	=41	=41	=41	=41	=41	.
2C/	per-	2e\	per-	1g/	per-	1cc\	de	1r	.	>
[2c\	deIn-	[2e\	deIn-	.	.	.	.	.	.	<CON_2v+1doub
=42	=42	=42	=42	=42	=42	=42	=42	=42	=42	.
2c\]	.	2e\]	.	1g/	deIn-	1r	.	1r	.	.
[2B-\	gra-	[2d\	gra-	.	.	.	.	.	.	.
=43	=43	=43	=43	=43	=43	=43	=43	=43	=43	.
4B-\]	.	4d\]	.	2.f/	gra-	1r	.	1r	.	.
4F\	ta	4c\	ta	.	.	.	.	.	.	.
[2A\	la	[2c\	la	.	.	.	.	.	.	.
.	.	.	.	4c/	ta	.	.	.	.	.
=44	=44	=44	=44	=44	=44	=44	=44	=44	=44	.
2A\]	.	2c\]	.	1e/	la	1r	.	1r	.	.
2G\	sat-	2B\	sat-	.	.	.	.	.	.	.
=45	=45	=45	=45	=45	=45	=45	=45	=45	=45	.
1F\	gion	1A/	gion	2d/	sta-	1r	.	2r	.	.
.	.	.	.	2c/	gion	.	.	[2ff\	In-	><CON_2v+1doub_rep
=46	=46	=46	=46	=46	=46	=46	=46	=46	=46	.
1r	.	1a\	In-	1r	.	1cc\	In-	2ff\]	.	.
.	.	.	.	.	.	.	.	[2ee\	gra-	.
=47	=47	=47	=47	=47	=47	=47	=47	=47	=47	.
1r	.	2.g\	gra-	1r	.	2.b\	gra-	4ee\]	.	.
.	.	.	.	.	.	.	.	4b\	ta	.
.	.	.	.	.	.	.	.	[2dd\	la	.
.	.	4d\	ta	.	.	4a/	ta	.	.	.
=48	=48	=48	=48	=48	=48	=48	=48	=48	=48	.
1r	.	2f\	la	1r	.	2a/	la	2dd\]	.	.
.	.	2e\	sta-	.	.	2g/	sta-	[2cc\	sta-	.
=49	=49	=49	=49	=49	=49	=49	=49	=49	=49	.
1r	.	1d\	gion	1r	.	2f#/	gi-	2cc\]	.	.
.	.	.	.	.	.	[2g/	on	2b\	gion	>
=50	=50	=50	=50	=50	=50	=50	=50	=50	=50	.
1r	.	[1d\	chia-	1r	.	2g/]	.	1a/	chia-	<CON_5v
.	.	.	.	.	.	2f/	chia-	.	.	.
=51	=51	=51	=51	=51	=51	=51	=51	=51	=51	.
1G\	chia-	2d\]	.	2r	.	1g/	mo	2b\	mo	.
.	.	2G/	mo	2d/	chia-	.	.	[2gg\	chia-	.
=52	=52	=52	=52	=52	=52	=52	=52	=52	=52	.
2C/	mo	1g\	chia-	2.e/	moein-	2r	.	2gg\]	.	.
[2c\	chia-	.	.	.	.	2g/	chia-	[2ee\	moein-	.
.	.	.	.	4d/	fe-	.	.	.	.	.
=53	=53	=53	=53	=53	=53	=53	=53	=53	=53	.
2c\]	.	2e\	mo	2c/	li-	2.a/	moein-	4ee\]	.	.
.	.	.	.	.	.	.	.	4dd\	fe-	.
[2A\	moein-	2e\	chia-	2c/	ce	.	.	[2cc\	li-	.
.	.	.	.	.	.	4e/	fe-	.	.	.
=54	=54	=54	=54	=54	=54	=54	=54	=54	=54	.
2A\]	.	2A/	moein-	4r	.	4f/	li-	2cc\]	.	.
.	.	.	.	4c/	chia-	4e/	.	.	.	.
2G\	fe-	2B\	fe-	4g/	moein-	[2e/	.	2b\	ce.	.
.	.	.	.	4g/	fe-	.	.	.	.	.
=55	=55	=55	=55	=55	=55	=55	=55	=55	=55	.
1F\	li-	2c\	li-	[1a/	li-	2e/]	.	1r	.	.
.	.	4B\	.	.	.	2d/	.	.	.	.
.	.	4A/	.	.	.	.	.	.	.	.
=56	=56	=56	=56	=56	=56	=56	=56	=56	=56	.
1E\	ce.	2c\	.	2a/]	.	1e/	ce.	1r	.	.
.	.	2B\	ce.	2g#/	ce.	.	.	.	.	>
=57	=57	=57	=57	=57	=57	=57	=57	=57	=57	.
4r	.	1r	.	1r	.	2r	.	4r	.	.
2c\	Ma	.	.	.	.	.	.	2ee\	Ma	<CON_4v+1doub
.	.	.	.	.	.	2g/	Ma	.	.	.
4B\	s'a-	.	.	.	.	.	.	4dd\	s'a-	.
=58	=58	=58	=58	=58	=58	=58	=58	=58	=58	.
4c\	vien	1r	.	1r	.	2e/	s'a-	4ee\	vien	.
8B\L	che	.	.	.	.	.	.	8dd\L	che	.
8A\J	per	.	.	.	.	.	.	8cc\J	per	.
2G\	me	.	.	.	.	4g/	vien	2b\	me	.
.	.	.	.	.	.	8f/L	che	.	.	.
.	.	.	.	.	.	8e/J	per	.	.	.
=59	=59	=59	=59	=59	=59	=59	=59	=59	=59	.
4r	.	4r	.	2r	.	4d/	me	1r	.	.
4E\	pi&ugrave;	2c\	Ma	.	.	2e/	Ma	.	.	.
4F\	non	.	.	4r	.	.	.	.	.	.
4G\	fio-	4B\	s'a-	[4g/	Ma	4d/	s'a-	.	.	.
=60	=60	=60	=60	=60	=60	=60	=60	=60	=60	.
2C/	ris-	4c\	vien	4g/]	.	4e/	vien	4r	.	.
.	.	8B/L	che	4g/	s'a-	8d/L	che	2ee\	Ma	.
.	.	8A/J	per	.	.	8c/J	per	.	.	.
2C/	ca	2G/	me	4g/	vien	2cc\	me	.	.	.
.	.	.	.	8f/L	che	.	.	4cc\	s'a-	.
.	.	.	.	8e/J	per	.	.	.	.	.
=61	=61	=61	=61	=61	=61	=61	=61	=61	=61	.
1r	.	1r	.	2d/	me	2a/	pi&ugrave;	4ff\	vien	.
.	.	.	.	.	.	.	.	8ee\L	che	.
.	.	.	.	.	.	.	.	8dd\J	per	.
.	.	.	.	4r	.	2a/	non	4cc\	me	.
.	.	.	.	4f/	pi&ugrave;	.	.	4ff\	pi&ugrave;	.
=62	=62	=62	=62	=62	=62	=62	=62	=62	=62	.
1r	.	1r	.	4g/	non	4b\	fio-	4dd\	non	.
.	.	.	.	4b-\	fio-	2dd\	ris-	4dd\	fio-	.
.	.	.	.	2a/	ris-	.	.	2ee\	ris-	.
.	.	.	.	.	.	4cc\	.	.	.	.
=63	=63	=63	=63	=63	=63	=63	=63	=63	=63	.
4r	.	2r	.	4d/	ca	2dd\	ca	2dd\	ca	.
2d\	Ma	.	.	2f/	pi&ugrave;	.	.	.	.	.
.	.	2A/	Ma	.	.	2r	.	4r	.	.
4c\	s'a-	.	.	4e/	non	.	.	[4a/	Ma	.
=64	=64	=64	=64	=64	=64	=64	=64	=64	=64	.
4d\	vien	2a\	s'a-	4f/	fio-	1r	.	4a/]	.	.
8c\L	che	.	.	8e/L	ris-	.	.	4a/	s'a-	.
8B\J	per	.	.	8d/J	.	.	.	.	.	.
2A\	me	4a\	vien	2c/	ca	.	.	4cc\	vien	.
.	.	8g\L	che	.	.	.	.	8b/L	che	.
.	.	8f\J	per	.	.	.	.	8a/J	per	.
=65	=65	=65	=65	=65	=65	=65	=65	=65	=65	.
4r	.	4e\	me	2r	.	1r	.	1g/	me	>
2c\	Ma	2e\	Ma	.	.	.	.	.	.	<CON_4v+1doub+2mot
.	.	.	.	2g/	pi&ugrave;	.	.	.	.	.
4B\	s'a-	4d\	s'a-	.	.	.	.	.	.	.
=66	=66	=66	=66	=66	=66	=66	=66	=66	=66	.
4c\	vien	4e\	vien	4a/	non	2r	.	1r	.	.
8B\L	che	8d\L	che	4cc\	fio-	.	.	.	.	.
8A\J	per	8c\J	per	.	.	.	.	.	.	.
4.G\	me	4d\	me	2b\	ris-	2g/	pi&ugrave;	.	.	.
.	.	4e\	pi&ugrave;	.	.	.	.	.	.	.
8G\	pi&ugrave;	.	.	.	.	.	.	.	.	.
=67	=67	=67	=67	=67	=67	=67	=67	=67	=67	.
4A\	non	2c\	non	2cc\	ca	4f/	non	1r	.	.
4c\	fio-	.	.	.	.	4e/	fio-	.	.	.
2B\	ris-	4r	.	2r	.	2d/	ris-	.	.	.
.	.	4G/	pi&ugrave;	.	.	.	.	.	.	.
=68	=68	=68	=68	=68	=68	=68	=68	=68	=68	.
4c\	ca	4A/	non	4r	.	2c/	ca	2r	.	.
4C/	fio-	4c\	fio-	4g/	pi&ugrave;	.	.	.	.	.
2G\	ris-	2B\	ris-	4.g/	non	4r	.	2dd\	pi&ugrave;	.
.	.	.	.	.	.	4g/	pi&ugrave;	.	.	.
.	.	.	.	8f/	fio-	.	.	.	.	.
=69	=69	=69	=69	=69	=69	=69	=69	=69	=69	.
2C/	ca	2c\	ca	2e/	ris-	4g/	non	4ee\	non	.
.	.	.	.	.	.	4g/	fio-	4gg\	fio-	.
2r	.	2r	.	4d/	ca	2a/	ris-	2ff#\	ris-	.
.	.	.	.	4d/	pi&ugrave;	.	.	.	.	.
=70	=70	=70	=70	=70	=70	=70	=70	=70	=70	.
1r	.	4r	.	4e/	non	2.g/	ca	4gg\	ca	.
.	.	4B\	pi&ugrave;	4g/	fio-	.	.	4dd\	pi&ugrave;	.
.	.	4c\	non	8e/L	ris-	.	.	4cc\	non	.
.	.	.	.	8f/J	.	.	.	.	.	.
.	.	4e\	fio-	8g/L	.	4g/	pi&ugrave;	4b\	fio-	.
.	.	.	.	8e/J	.	.	.	.	.	.
=71	=71	=71	=71	=71	=71	=71	=71	=71	=71	.
1r	.	1d\	ris-	4f#/	.	4a/	non	1dd\	ris-	.
.	.	.	.	2g/	.	4b\	fio-	.	.	.
.	.	.	.	.	.	2a/	ris-	.	.	.
.	.	.	.	4f#/	.	.	.	.	.	.
=72	=72	=72	=72	=72	=72	=72	=72	=72	=72	.
2r	.	2G/	ca	1g/	ca	2.b\	ca	2dd\	ca	>
2E\	pi&ugrave;	2g\	pi&ugrave;	.	.	.	.	2ee\	pi&ugrave;	<HOM_4v
.	.	.	.	.	.	4cc\	pi&ugrave;	.	.	.
=73	=73	=73	=73	=73	=73	=73	=73	=73	=73	.
2F\	non	2f\	non	1r	.	2a/	non	2cc\	non	.
2A\	fio-	2e\	fio-	.	.	4a/	fio-	2cc\	fio-	.
.	.	.	.	.	.	[4cc\	ris-	.	.	.
=74	=74	=74	=74	=74	=74	=74	=74	=74	=74	.
1G\	ris-	1g\	ris-	1r	.	4cc\]	.	1dd\	ris-	.
.	.	.	.	.	.	8b/L	.	.	.	.
.	.	.	.	.	.	8a/J	.	.	.	.
.	.	.	.	.	.	2b\	.	.	.	.
=75	=75	=75	=75	=75	=75	=75	=75	=75	=75	.
2C/	ca	2g\	ca	2r	.	1cc\	ca	1ee\	ca	>
2C/	A-	2g\	A-	2e/	A-	.	.	.	.	<CONlib_3v+1triple
=76	=76	=76	=76	=76	=76	=76	=76	=76	=76	.
2D\	mor	2f\	mor	4d/	mor	1r	.	2r	.	.
.	.	.	.	4c/	fa	.	.	.	.	.
2E\	fa	2e\	fa	2B/	ch'al-	.	.	2g/	A-	.
=77	=77	=77	=77	=77	=77	=77	=77	=77	=77	.
2F\	ch'al-	4d\	ch'al-	2A/	triai-	2a/	A-	2a/	mor	.
.	.	4c\	triai-	.	.	.	.	.	.	.
2G\	triai-	2B\	m&egrave;	2d/	m&egrave;	4g/	mor	2b\	fa	.
.	.	.	.	.	.	4f/	fa	.	.	.
=78	=78	=78	=78	=78	=78	=78	=78	=78	=78	.
1A\	m&egrave;	1r	.	2c/	ai	4e/	ch'al-	4cc\	ch'al-	.
.	.	.	.	.	.	4d/	triai-	4dd\	triai-	.
.	.	.	.	4c/	m&egrave;	4c/	m&egrave;	4ee\	m&egrave;	.
.	.	.	.	4A/	non	4cc\	non	4ee\	non	.
=79	=79	=79	=79	=79	=79	=79	=79	=79	=79	.
1r	.	1r	.	4c/	ne	4cc\	ne	4ee\	ne	.
.	.	.	.	4d/	gio-	8b/L	.	8dd\L	.	.
.	.	.	.	.	.	8a/J	.	8cc\J	.	.
.	.	.	.	2e/	is-	4g#/	.	4b\	.	.
.	.	.	.	.	.	4a/	gio-	4a/	gio-	.
=80	=80	=80	=80	=80	=80	=80	=80	=80	=80	.
2r	.	2r	.	2e/	ca	2g#/	is-	2b\	is-	.
2A\	non	2e\	non	4r	.	2a/	ca	2a/	ca	><ANTIF_3v
.	.	.	.	4cc\	non	.	.	.	.	.
=81	=81	=81	=81	=81	=81	=81	=81	=81	=81	.
4A\	ne	2.e\	ne	4cc\	ne	1r	.	2r	.	.
8G\L	.	.	.	8b/L	.	.	.	.	.	.
8F\J	.	.	.	8a/J	.	.	.	.	.	.
4E\	.	.	.	4g#/	.	.	.	4r	.	.
4D\	gio-	4f\	gio-	4a/	gio-	.	.	4dd\	non	.
=82	=82	=82	=82	=82	=82	=82	=82	=82	=82	.
1E\	is-	1e\	is-	4g#/	is-	1r	.	4b\	ne	.
.	.	.	.	2a/	.	.	.	4a/	gio-	.
.	.	.	.	.	.	.	.	2b\	is-	.
.	.	.	.	4g#/	.	.	.	.	.	.
=83	=83	=83	=83	=83	=83	=83	=83	=83	=83	.
2A\	ca	2e\	ca	1a/	ca	1r	.	1a/	ca	>
2A\	A-	2c\	A-	.	.	.	.	.	.	<CONlib_5v+2mot
=84	=84	=84	=84	=84	=84	=84	=84	=84	=84	.
4G\	mor	2d\	mor	4r	.	1r	.	2r	.	.
4F\	fa	.	.	4a/	A-	.	.	.	.	.
2E\	ch'al-	2e\	fa	2g/	mor	.	.	2g/	A-	.
=85	=85	=85	=85	=85	=85	=85	=85	=85	=85	.
2D\	triai	2f\	ch'al-	2f/	fa	1r	.	4a/	mor	.
.	.	.	.	.	.	.	.	4b\	fa	.
2C/	m&egrave;	2g\	triai-	4e/	ch'al-	.	.	[2cc\	ch'al-	.
.	.	.	.	4d/	triai-	.	.	.	.	.
=86	=86	=86	=86	=86	=86	=86	=86	=86	=86	.
1r	.	4a\	m&egrave;	2c/	m&egrave;	2r	.	4cc\]	.	.
.	.	4a\	A-	.	.	.	.	4dd\	triai-	.
.	.	2g\	mor	2cc\	non	2c/	A-	2ee\	m&egrave;	.
=87	=87	=87	=87	=87	=87	=87	=87	=87	=87	.
2r	.	2f\	fa	2a/	ne	2d/	mor	2dd\	non	.
4r	.	2e\	ch'al-	2g/	gio-	2e/	fa	4b\	ne	.
4C/	A-	.	.	.	.	.	.	4cc\	gio-	.
=88	=88	=88	=88	=88	=88	=88	=88	=88	=88	.
4D\	mor	1d\	triai-	2f/	is-	4f/	ch'al-	2a/	is-	.
4E\	fa	.	.	.	.	4g/	triai-	.	.	.
4.F\	ch'al-	.	.	4f/	ca	4a/	m&egrave;	2a/	ca	.
.	.	.	.	4f/	non	4a/	non	.	.	.
8G\	triai-	.	.	.	.	.	.	.	.	.
=89	=89	=89	=89	=89	=89	=89	=89	=89	=89	.
1A\	m&egrave;	2c\	m&egrave;	4f/	ne	4a/	ne	1r	.	.
.	.	.	.	8e/L	.	8g/L	.	.	.	.
.	.	.	.	8d/J	.	8f/J	.	.	.	.
.	.	2r	.	4c#/	.	4e/	.	.	.	.
.	.	.	.	4d/	gio-	4d/	gio-	.	.	.
=90	=90	=90	=90	=90	=90	=90	=90	=90	=90	.
1r	.	4r	.	2c#/	is-	2e/	is-	2a/	non	.
.	.	4e\	non	.	.	.	.	.	.	.
.	.	4f\	ne	2d/	ca	4d/	ca	4a/	ne	.
.	.	4f\	gio-	.	.	4a/	gio-	4a/	gio-	.
=91	=91	=91	=91	=91	=91	=91	=91	=91	=91	.
1r	.	2e\	is-	2r	.	2g#/	is-	2b\	is-	.
.	.	2A/	ca	4r	.	2a/	ca	2cc\	ca	>
.	.	.	.	4e/	gio-	.	.	.	.	.
=92	=92	=92	=92	=92	=92	=92	=92	=92	=92	.
4r	.	4r	.	2g/	is-	1r	.	1r	.	.
4c\	non	4e\	non	.	.	.	.	.	.	<ANTIF_2v+1imit
4c\	ne	4e\	ne	2e/	ca	.	.	.	.	.
8B\L	.	8d\L	.	.	.	.	.	.	.	.
8A\J	.	8c\J	.	.	.	.	.	.	.	.
=93	=93	=93	=93	=93	=93	=93	=93	=93	=93	.
4G#\	.	4B\	.	2r	.	2r	.	2r	.	.
4A\	gio-	4A/	gio-	.	.	.	.	.	.	.
2G#\	is-	2B\	is-	2e/	non	4r	.	2ee\	non	.
.	.	.	.	.	.	4b\	non	.	.	.
=94	=94	=94	=94	=94	=94	=94	=94	=94	=94	.
2A\	ca	2A/	ca	4c/	ne	4cc\	ne	4ee\	ne	.
.	.	.	.	4d/	gio-	8b/L	.	8dd\L	.	.
.	.	.	.	.	.	8a/J	.	8cc\J	.	.
2r	.	2r	.	[2e/	is-	4g#/	.	4b\	.	.
.	.	.	.	.	.	4a/	gio-	4a/	gio-	.
=95	=95	=95	=95	=95	=95	=95	=95	=95	=95	.
2r	.	2r	.	2e/]	.	2g#/	is-	2b\	is-	.
4r	.	4r	.	2A/	ca	4a/	ca	2a/	ca	>
4A\	non	4c\	non	.	.	4a/	fa	.	.	<CON_3v+1doub
=96	=96	=96	=96	=96	=96	=96	=96	=96	=96	.
4A\	ne	4c\	ne	4r	.	4.e/	ch'al-	1r	.	.
8G\L	.	8B/L	.	4e/	non	.	.	.	.	.
8F\J	.	8A/J	.	.	.	8f/	triai-	.	.	.
4E\	.	4G/	.	4e/	ne	4g/	m&egrave;	.	.	.
4D\	gio-	4d\	non	4f/	gio-	4a/	non	.	.	.
=97	=97	=97	=97	=97	=97	=97	=97	=97	=97	.
[1E\	is-	4c\	ne	[1e/	is-	4a/	ne	4r	.	.
.	.	8B/L	.	.	.	4g/	.	4ee\	non	.
.	.	8A/J	.	.	.	.	.	.	.	.
.	.	4G/	.	.	.	4cc\	.	4ee\	ne	.
.	.	4A/	gio-	.	.	8b/L	.	8dd\L	.	.
.	.	.	.	.	.	8a/J	.	8cc\J	.	.
=98	=98	=98	=98	=98	=98	=98	=98	=98	=98	.
1E\]	.	4B\	is-	1e/]	.	4g#/	.	4b\	.	.
.	.	4c\	.	.	.	4a/	gio-	4a/	gio-	.
.	.	2B\	.	.	.	2g#/	is-	2b\	is-	.
=99	=99	=99	=99	=99	=99	=99	=99	=99	=99	.
1A\	ca.	1A/	ca.	1e/	ca.	1a/	ca.	1cc#\	ca.	>
==	==	==	==	==	==	==	==	==	==	==
*-	*-	*-	*-	*-	*-	*-	*-	*-	*-	*-